packages/icons/src/plugin-ci-step-inverse.svg

<svg viewBox="0 0 40 41" xmlns="http://www.w3.org/2000/svg"><path clip-rule="evenodd" d="m17.8137 7.62758-7.84654.00015.0003.00001v8.99106c-.00001.5499-.43254.9714-.9371 1.0267-.59902.0656-1.6317.2564-2.50107.79-.8425.5171-1.52908 1.3488-1.52908 2.7684 0 1.4003.66638 2.1618 1.47891 2.6083.84789.4659 1.86476.5871 2.47778.6116.5337.0214 1.01055.4531 1.01055 1.0324v7.1694h24.80785l.2245-24.99718h.0001c-2.2596-.00002-4.568-.00016-6.4319-.00028-.6437-.00004-1.2344-.00007-1.7517-.0001-.0012 0-.0019.00011-.0032.00065-.0017.0007-.0051.00254-.0095.00665-.0094.00898-.0166.02271-.0181.03783-.0658.66034-.2663 1.87639-.8987 2.94133-.6485 1.0922-1.7604 2.0307-3.5797 2.0307-1.8187 0-2.928-.9381-3.5733-2.0305-.629-1.06486-.8257-2.28086-.8894-2.94182-.0015-.01523-.0087-.02902-.0181-.03802-.0043-.00411-.0078-.00594-.0095-.00664-.0012-.00052-.0019-.00064-.0031-.00064zm-7.84655-.99985 7.84655-.00015c.5558.00001.9773.44067 1.0263.94943.0584.60669.2362 1.65083.755 2.52919.5026.8508 1.3147 1.539 2.7121 1.539 1.3982 0 2.2136-.6891 2.7196-1.5411.5221-.87926.7031-1.924.7635-2.53001.0505-.50752.4718-.94608 1.0261-.94605.5171.00003 1.1074.00006 1.7508.0001 1.864.00012 4.1729.00026 6.4328.00028.556 0 1.005.45332 1.0001 1.00898l-.2245 24.9972c-.0049.5488-.4513.991-1.0002.991h-24.80785c-.5524 0-1.00021-.4477-1.00021-1v-7.1694c.00003-.0006.0003-.0059-.009-.0151-.0107-.0106-.02598-.0175-.04134-.0181-.66766-.0267-1.86919-.1573-2.91953-.7345-1.0857-.5965-1.99737-1.6692-1.99737-3.4846 0-1.8293.92417-2.9566 2.00599-3.6206 1.05496-.6476 2.26016-.8601 2.91543-.9318.01477-.0017.02865-.0089.03797-.0188.00839-.009.00785-.0138.00785-.0139l.00001-8.99106c0-.5519.44711-1 .9999-1.00001z" fill="#fff" fill-rule="evenodd"/></svg>

<svg viewBox="0 0 40 41" xmlns="http://www.w3.org/2000/svg">
<path fill-rule="evenodd" clip-rule="evenodd" d="M17.8137 7.62758L9.96716 7.62773L9.96746 7.62774L9.96746 16.6188C9.96745 17.1687 9.53492 17.5902 9.03036 17.6455C8.43134 17.7111 7.39866 17.9019 6.52929 18.4355C5.68679 18.9526 5.00021 19.7843 5.00021 21.2039C5.00021 22.6042 5.66659 23.3657 6.47912 23.8122C7.32701 24.2781 8.34388 24.3993 8.9569 24.4238C9.4906 24.4452 9.96745 24.8769 9.96745 25.4562V32.6256L34.7753 32.6256L34.9998 7.62842L34.9999 7.62842C32.7403 7.6284 30.4319 7.62826 28.568 7.62814C27.9243 7.6281 27.3336 7.62807 26.8163 7.62804C26.8151 7.62804 26.8144 7.62815 26.8131 7.62869C26.8114 7.62939 26.808 7.63123 26.8036 7.63534C26.7942 7.64432 26.787 7.65805 26.7855 7.67317C26.7197 8.33351 26.5192 9.54956 25.8868 10.6145C25.2383 11.7067 24.1264 12.6452 22.3071 12.6452C20.4884 12.6452 19.3791 11.7071 18.7338 10.6147C18.1048 9.54984 17.9081 8.33384 17.8444 7.67288C17.8429 7.65765 17.8357 7.64386 17.8263 7.63486C17.822 7.63075 17.8185 7.62892 17.8168 7.62822C17.8156 7.6277 17.8149 7.62758 17.8137 7.62758ZM9.96715 6.62773L17.8137 6.62758C18.3695 6.62759 18.791 7.06825 18.84 7.57701C18.8984 8.1837 19.0762 9.22784 19.595 10.1062C20.0976 10.957 20.9097 11.6452 22.3071 11.6452C23.7053 11.6452 24.5207 10.9561 25.0267 10.1041C25.5488 9.22484 25.7298 8.1801 25.7902 7.57409C25.8407 7.06657 26.262 6.62801 26.8163 6.62804C27.3334 6.62807 27.9237 6.6281 28.5671 6.62814C30.4311 6.62826 32.74 6.6284 34.9999 6.62842C35.5559 6.62842 36.0049 7.08174 36 7.6374L35.7755 32.6346C35.7706 33.1834 35.3242 33.6256 34.7753 33.6256L9.96745 33.6256C9.41505 33.6256 8.96724 33.1779 8.96724 32.6256V25.4562L8.96724 25.4562C8.96727 25.4556 8.96754 25.4503 8.95824 25.4411C8.94754 25.4305 8.93226 25.4236 8.9169 25.423C8.24924 25.3963 7.04771 25.2657 5.99737 24.6885C4.91167 24.092 4 23.0193 4 21.2039C4 19.3746 4.92417 18.2473 6.00599 17.5833C7.06095 16.9357 8.26615 16.7232 8.92142 16.6515C8.93619 16.6498 8.95007 16.6426 8.95939 16.6327C8.96778 16.6237 8.96724 16.6189 8.96724 16.6188L8.96725 7.62774C8.96725 7.07584 9.41436 6.62774 9.96715 6.62773Z" fill="white"/>
</svg>
